symbolic/22x22/apps/Nvidiux.svg

<svg xmlns="http://www.w3.org/2000/svg" width="22" height="22" version="1">
 <rect style="fill:#e54031" width="20" height="20" x="1" y="1" rx="1" ry="1"/>
 <path style="opacity:0.2" d="M 18.25,5.999703 8.185242,16.350971 6.724827,12.354046 Z"/>
 <path style="opacity:0.2;fill:#ffffff" d="M 2,1 C 1.446,1 1,1.446 1,2 v 0.5 c 0,-0.554 0.446,-1 1,-1 h 18 c 0.554,0 1,0.446 1,1 V 2 C 21,1.446 20.554,1 20,1 Z"/>
 <path style="opacity:0.2" d="m 2,21.5 c -0.554,0 -1,-0.446 -1,-1 V 20 c 0,0.554 0.446,1 1,1 h 18 c 0.554,0 1,-0.446 1,-1 v 0.5 c 0,0.554 -0.446,1 -1,1 z"/>
 <path style="opacity:0.4" d="M 7.5,3 C 7.2157537,3.0001377 6.9330691,3.01432 6.6523438,3.035156 6.6177378,3.037826 6.5833878,3.041936 6.5488281,3.044926 6.2868266,3.0667614 6.0275579,3.0973135 5.7695312,3.1367188 4.6627389,3.3057454 3.6036808,3.6469874 2.6074219,4.1171875 2.4980351,4.1692458 2.3910146,4.2257205 2.2832031,4.28125 1.8652708,4.4948989 1.4629896,4.7330575 1.0742188,4.9960938 1.0499914,5.0125503 1.0241149,5.0263209 1,5.0429688 v 0.00391 0.7402344 C 1.019528,5.7764932 1.037047,5.7624482 1.056641,5.7519532 1.3507225,5.5944223 1.6545102,5.4586751 1.9609375,5.3300781 2.0492405,5.2930975 2.1333223,5.2474632 2.2226562,5.2128906 2.5536557,5.084444 2.8924907,4.9809973 3.234375,4.8867188 3.3027748,4.8679374 3.3686607,4.8416267 3.4375,4.8242188 3.7752738,4.7383981 4.1195614,4.6807199 4.4648438,4.6289062 4.5483035,4.616465 4.6289823,4.5924747 4.7128906,4.5820312 5.1382422,4.52869 5.5683959,4.5004525 6,4.5 c 0.3422082,4.282e-4 0.6808628,0.01979 1.015625,0.052734 0.061749,0.00594 0.1221615,0.016437 0.1835938,0.023437 0.2983174,0.034718 0.5939211,0.079174 0.8847656,0.1386719 0.029255,0.0059 0.058724,0.011436 0.087891,0.017578 1.8364496,0.3921979 3.5061816,1.2699234 4.8632806,2.5019531 l 2.199219,-1.2128906 c -1.217868,-1.1096589 -2.66144,-1.9761071 -4.271484,-2.484375 -0.0039,-0.00124 -0.0078,-0.00267 -0.01172,-0.00391 -0.0096,-0.00304 -0.01969,-0.0048 -0.0293,-0.00781 C 10.598811,3.4247301 10.270142,3.3398153 9.935547,3.2675781 9.869939,3.2532801 9.804276,3.23973 9.738281,3.2265625 9.437402,3.1671301 9.133037,3.1194477 8.8242188,3.0839844 8.755733,3.0759845 8.6879578,3.0653774 8.6191406,3.0585938 8.2506426,3.0229806 7.8778408,3 7.5,3 Z m 9.566406,5.1523438 -1.830078,1.8808592 c 0.05629,0.104474 0.117073,0.205923 0.169922,0.3125 l -0.0078,0.0078 c 0.375423,0.760693 0.666205,1.573835 0.851562,2.433593 l 2.580078,-0.169921 c -0.08893,-0.535881 -0.226835,-1.05164 -0.386719,-1.556641 l 0.03125,-0.0059 C 18.147423,10.011129 17.659818,9.043544 17.066406,8.1523438 Z m 1.888672,5.4589842 -2.539062,0.166016 c 0.05151,0.403305 0.07955,0.810239 0.08398,1.216797 l 2.486328,-0.01172 C 18.994228,14.821731 18.99882,14.660885 19,14.5 18.9964,14.203633 18.98148,13.906537 18.95508,13.611328 Z m -0.06445,2.371094 -2.443359,0.01172 c -0.03899,0.397394 -0.09963,0.791265 -0.183594,1.18164 l 2.375,0.15625 c 0.110826,-0.444772 0.19496,-0.894795 0.251953,-1.349609 z m -2.886719,2.179687 c -0.143525,0.440949 -0.31708,0.87093 -0.517578,1.289063 l 2.072266,0.578125 c 0.305216,-0.549439 0.565852,-1.122974 0.777344,-1.714844 z"/>
 <path style="fill:#e4e4e4" d="M 18.25,5.5 8.185242,15.851268 6.724827,11.854343 Z"/>
 <circle style="opacity:0.2" cx="7.5" cy="14" r="3.5"/>
 <circle style="fill:#ffffff" cx="7.5" cy="13.5" r="3.5"/>
</svg>

<svg xmlns="http://www.w3.org/2000/svg" width="22" height="22" version="1"><rect style="fill:#e54031" width="20" height="20" x="1" y="1" rx="1" ry="1"/><path style="opacity:.2" d="M18.25 6 8.185 16.35l-1.46-3.997z"/><path style="opacity:.2;fill:#fff" d="M2 1c-.554 0-1 .446-1 1v.5c0-.554.446-1 1-1h18c.554 0 1 .446 1 1V2c0-.554-.446-1-1-1z"/><path style="opacity:.2" d="M2 21.5c-.554 0-1-.446-1-1V20c0 .554.446 1 1 1h18c.554 0 1-.446 1-1v.5c0 .554-.446 1-1 1z"/><path style="opacity:.4" d="M7.5 3c-.284 0-.567.014-.848.035l-.103.01a11.46 11.46 0 0 0-.78.092c-1.106.169-2.165.51-3.162.98-.109.052-.216.109-.324.164-.418.214-.82.452-1.209.715-.024.017-.05.03-.074.047v.744c.02-.01.037-.025.057-.035.294-.158.598-.293.904-.422.088-.037.172-.083.262-.117.33-.129.67-.232 1.011-.326.069-.02.135-.045.204-.063.337-.086.682-.143 1.027-.195.083-.013.164-.037.248-.047C5.138 4.529 5.568 4.5 6 4.5c.342 0 .68.02 1.016.053.061.006.122.016.183.023.299.035.594.08.885.139l.088.017a10.501 10.501 0 0 1 4.863 2.502l2.2-1.213a11.485 11.485 0 0 0-4.272-2.484l-.012-.004-.03-.008a11.396 11.396 0 0 0-1.183-.298c-.3-.06-.605-.108-.914-.143-.068-.008-.136-.019-.205-.025A11.618 11.618 0 0 0 7.5 3zm9.566 5.152-1.83 1.881c.057.105.117.206.17.313l-.008.008c.376.76.667 1.573.852 2.433l2.58-.17a11.252 11.252 0 0 0-.387-1.556l.032-.006a11.393 11.393 0 0 0-1.409-2.903zm1.89 5.46-2.54.165c.052.404.08.81.084 1.217l2.486-.012c.008-.16.013-.321.014-.482a11.565 11.565 0 0 0-.045-.889zm-.065 2.37-2.444.012c-.039.398-.1.791-.183 1.182l2.375.156c.11-.445.195-.895.252-1.35zm-2.887 2.18c-.144.441-.317.871-.518 1.29l2.073.577c.305-.55.565-1.123.777-1.715z"/><path style="fill:#e4e4e4" d="M18.25 5.5 8.185 15.851l-1.46-3.997z"/><circle style="opacity:.2" cx="7.5" cy="14" r="3.5"/><circle style="fill:#fff" cx="7.5" cy="13.5" r="3.5"/></svg>
